build/assets/img/stage-analysis/image-element-6.svg

<svg width="68" height="89" viewBox="0 0 68 89" fill="none" xmlns="http://www.w3.org/2000/svg">
<g filter="url(#filter0_di)">
<path d="M53.3035 41.2403C50.9849 45.9847 46.8531 49.0668 42.2641 51.7572C39.58 53.3022 39.6124 58.8835 39.6124 58.8835L39.3208 69.8882C39.3208 75.6128 36.8679 72.7096 31.9623 76.5806L27.5472 76.0967C22.6415 76.0967 19.6981 76.0967 19.6981 69.8882C19.6981 66.0728 19.3854 61.7529 19.3854 59.1042C19.3854 54.2861 17.6385 52.1986 16.7651 51.7572C12.9831 49.5489 9.8297 46.431 7.59928 42.6946C5.36886 38.9582 4.13412 34.7251 4.01033 30.3903C3.88653 26.0556 4.8777 21.7605 6.89134 17.9061C8.90497 14.0517 11.8754 10.7635 15.5254 8.34852C19.1754 5.93355 23.3859 4.4705 27.764 4.09594C32.1421 3.72137 36.545 4.4475 40.5617 6.20654C44.5784 7.96559 48.078 10.7002 50.7338 14.1551C53.3897 17.6101 55.1151 21.6727 55.7492 25.9638C56.4729 31.1825 55.6222 36.4959 53.3035 41.2403Z" fill="#B4D1FA"/>
<path d="M53.3035 41.2403C50.9849 45.9847 46.8531 49.0668 42.2641 51.7572C39.58 53.3022 39.6124 58.8835 39.6124 58.8835L39.3208 69.8882C39.3208 75.6128 36.8679 72.7096 31.9623 76.5806L27.5472 76.0967C22.6415 76.0967 19.6981 76.0967 19.6981 69.8882C19.6981 66.0728 19.3854 61.7529 19.3854 59.1042C19.3854 54.2861 17.6385 52.1986 16.7651 51.7572C12.9831 49.5489 9.8297 46.431 7.59928 42.6946C5.36886 38.9582 4.13412 34.7251 4.01033 30.3903C3.88653 26.0556 4.8777 21.7605 6.89134 17.9061C8.90497 14.0517 11.8754 10.7635 15.5254 8.34852C19.1754 5.93355 23.3859 4.4705 27.764 4.09594C32.1421 3.72137 36.545 4.4475 40.5617 6.20654C44.5784 7.96559 48.078 10.7002 50.7338 14.1551C53.3897 17.6101 55.1151 21.6727 55.7492 25.9638C56.4729 31.1825 55.6222 36.4959 53.3035 41.2403Z" fill="url(#paint0_radial)" fill-opacity="0.8"/>
</g>
<g filter="url(#filter1_di)">
<path d="M38.5323 56.2579H20.4876C19.51 56.2579 18.7175 56.9078 18.7175 57.7095C18.7175 58.5112 19.51 59.1612 20.4876 59.1612H38.5323C39.5099 59.1612 40.3024 58.5112 40.3024 57.7095C40.3024 56.9078 39.5099 56.2579 38.5323 56.2579Z" fill="#F985A0"/>
</g>
<g filter="url(#filter2_di)">
<path d="M38.5323 61.0965H20.4877C19.51 61.0965 18.7175 61.7464 18.7175 62.5481C18.7175 63.3498 19.51 63.9997 20.4877 63.9997H38.5323C39.5099 63.9997 40.3024 63.3498 40.3024 62.5481C40.3024 61.7464 39.5099 61.0965 38.5323 61.0965Z" fill="#F985A0"/>
</g>
<g filter="url(#filter3_di)">
<path d="M38.5323 65.9353H20.4877C19.51 65.9353 18.7175 66.5853 18.7175 67.387C18.7175 68.1887 19.51 68.8386 20.4877 68.8386H38.5323C39.5099 68.8386 40.3024 68.1887 40.3024 67.387C40.3024 66.5853 39.5099 65.9353 38.5323 65.9353Z" fill="#F985A0"/>
</g>
<path d="M25.2331 36.9038C26.6119 37.6058 28.1566 37.9835 29.7309 38.0035C32.3105 38.0035 33.8318 36.8121 33.8318 35.1319C33.8318 33.4517 32.7735 32.6268 30.1608 31.7714C26.8536 30.7939 25.0016 29.358 25.0016 26.9752C25.0016 24.5923 27.5151 22.3928 31.2852 22.3928C32.7801 22.3428 34.266 22.6257 35.6177 23.2176L34.9232 24.9895C33.7681 24.4727 32.5025 24.2013 31.2191 24.1952C28.5403 24.1952 27.5481 25.5699 27.5481 26.7308C27.5481 27.8917 28.7387 29.0831 31.4175 29.9996C34.7247 31.0994 36.3783 32.4741 36.3783 34.9486C36.3783 37.4231 34.1625 39.806 29.5655 39.806C27.8431 39.8219 26.1417 39.4552 24.6047 38.7367L25.2331 36.9038Z" fill="#C43B55"/>
<path d="M29.5093 22.3869V19.4837H31.4199L31.4715 22.2794" fill="#C43B55"/>
<path d="M31.4715 39.8062V42.7095H29.5609L29.5093 39.8722" fill="#C43B55"/>
<path d="M39.3202 70.7742H19.6975C19.6975 72.871 21.1692 79 29.5088 79C37.0066 79 39.3202 73.5161 39.3202 70.7742Z" fill="#71A0DD"/>
<defs>
<filter id="filter0_di" x="0" y="0" width="68" height="88.5806" filterUnits="userSpaceOnUse" color-interpolation-filters="sRGB">
<feFlood flood-opacity="0" result="BackgroundImageFix"/>
<feColorMatrix in="SourceAlpha" type="matrix" values="0 0 0 0 0 0 0 0 0 0 0 0 0 0 0 0 0 0 127 0"/>
<feOffset dx="4" dy="4"/>
<feGaussianBlur stdDeviation="4"/>
<feColorMatrix type="matrix" values="0 0 0 0 0 0 0 0 0 0 0 0 0 0 0 0 0 0 0.2 0"/>
<feBlend mode="normal" in2="BackgroundImageFix" result="effect1_dropShadow"/>
<feBlend mode="normal" in="SourceGraphic" in2="effect1_dropShadow" result="shape"/>
<feColorMatrix in="SourceAlpha" type="matrix" values="0 0 0 0 0 0 0 0 0 0 0 0 0 0 0 0 0 0 127 0" result="hardAlpha"/>
<feOffset dx="-4" dy="-4"/>
<feGaussianBlur stdDeviation="4"/>
<feComposite in2="hardAlpha" operator="arithmetic" k2="-1" k3="1"/>
<feColorMatrix type="matrix" values="0 0 0 0 0 0 0 0 0 0 0 0 0 0 0 0 0 0 0.2 0"/>
<feBlend mode="normal" in2="shape" result="effect2_innerShadow"/>
</filter>
<filter id="filter1_di" x="14.7175" y="52.2579" width="37.5849" height="18.9032" filterUnits="userSpaceOnUse" color-interpolation-filters="sRGB">
<feFlood flood-opacity="0" result="BackgroundImageFix"/>
<feColorMatrix in="SourceAlpha" type="matrix" values="0 0 0 0 0 0 0 0 0 0 0 0 0 0 0 0 0 0 127 0"/>
<feOffset dx="4" dy="4"/>
<feGaussianBlur stdDeviation="4"/>
<feColorMatrix type="matrix" values="0 0 0 0 0 0 0 0 0 0 0 0 0 0 0 0 0 0 0.2 0"/>
<feBlend mode="normal" in2="BackgroundImageFix" result="effect1_dropShadow"/>
<feBlend mode="normal" in="SourceGraphic" in2="effect1_dropShadow" result="shape"/>
<feColorMatrix in="SourceAlpha" type="matrix" values="0 0 0 0 0 0 0 0 0 0 0 0 0 0 0 0 0 0 127 0" result="hardAlpha"/>
<feOffset dx="-4" dy="-4"/>
<feGaussianBlur stdDeviation="4"/>
<feComposite in2="hardAlpha" operator="arithmetic" k2="-1" k3="1"/>
<feColorMatrix type="matrix" values="0 0 0 0 0 0 0 0 0 0 0 0 0 0 0 0 0 0 0.15 0"/>
<feBlend mode="normal" in2="shape" result="effect2_innerShadow"/>
</filter>
<filter id="filter2_di" x="14.7175" y="57.0965" width="37.5849" height="18.9032" filterUnits="userSpaceOnUse" color-interpolation-filters="sRGB">
<feFlood flood-opacity="0" result="BackgroundImageFix"/>
<feColorMatrix in="SourceAlpha" type="matrix" values="0 0 0 0 0 0 0 0 0 0 0 0 0 0 0 0 0 0 127 0"/>
<feOffset dx="4" dy="4"/>
<feGaussianBlur stdDeviation="4"/>
<feColorMatrix type="matrix" values="0 0 0 0 0 0 0 0 0 0 0 0 0 0 0 0 0 0 0.2 0"/>
<feBlend mode="normal" in2="BackgroundImageFix" result="effect1_dropShadow"/>
<feBlend mode="normal" in="SourceGraphic" in2="effect1_dropShadow" result="shape"/>
<feColorMatrix in="SourceAlpha" type="matrix" values="0 0 0 0 0 0 0 0 0 0 0 0 0 0 0 0 0 0 127 0" result="hardAlpha"/>
<feOffset dx="-4" dy="-4"/>
<feGaussianBlur stdDeviation="4"/>
<feComposite in2="hardAlpha" operator="arithmetic" k2="-1" k3="1"/>
<feColorMatrix type="matrix" values="0 0 0 0 0 0 0 0 0 0 0 0 0 0 0 0 0 0 0.15 0"/>
<feBlend mode="normal" in2="shape" result="effect2_innerShadow"/>
</filter>
<filter id="filter3_di" x="14.7175" y="61.9353" width="37.5849" height="18.9032" filterUnits="userSpaceOnUse" color-interpolation-filters="sRGB">
<feFlood flood-opacity="0" result="BackgroundImageFix"/>
<feColorMatrix in="SourceAlpha" type="matrix" values="0 0 0 0 0 0 0 0 0 0 0 0 0 0 0 0 0 0 127 0"/>
<feOffset dx="4" dy="4"/>
<feGaussianBlur stdDeviation="4"/>
<feColorMatrix type="matrix" values="0 0 0 0 0 0 0 0 0 0 0 0 0 0 0 0 0 0 0.2 0"/>
<feBlend mode="normal" in2="BackgroundImageFix" result="effect1_dropShadow"/>
<feBlend mode="normal" in="SourceGraphic" in2="effect1_dropShadow" result="shape"/>
<feColorMatrix in="SourceAlpha" type="matrix" values="0 0 0 0 0 0 0 0 0 0 0 0 0 0 0 0 0 0 127 0" result="hardAlpha"/>
<feOffset dx="-4" dy="-4"/>
<feGaussianBlur stdDeviation="4"/>
<feComposite in2="hardAlpha" operator="arithmetic" k2="-1" k3="1"/>
<feColorMatrix type="matrix" values="0 0 0 0 0 0 0 0 0 0 0 0 0 0 0 0 0 0 0.15 0"/>
<feBlend mode="normal" in2="shape" result="effect2_innerShadow"/>
</filter>
<radialGradient id="paint0_radial" cx="0" cy="0" r="1" gradientUnits="userSpaceOnUse" gradientTransform="translate(19.6981 13.1935) rotate(48.8782) scale(23.1236 36.6515)">
<stop stop-color="white"/>
<stop offset="0.723942" stop-color="white" stop-opacity="0"/>
</radialGradient>
</defs>
</svg>

<svg width="68" height="89" fill="none" xmlns="http://www.w3.org/2000/svg"><g filter="url(#filter0_di)"><path d="M53.303 41.24c-2.318 4.745-6.45 7.827-11.039 10.517-2.684 1.545-2.652 7.127-2.652 7.127l-.291 11.004c0 5.725-2.453 2.822-7.359 6.693l-4.415-.484c-4.905 0-7.849 0-7.849-6.209 0-3.815-.313-8.135-.313-10.784 0-4.818-1.747-6.905-2.62-7.347A25.841 25.841 0 017.6 42.695 25.416 25.416 0 014.01 30.39a25.388 25.388 0 012.881-12.484 25.784 25.784 0 018.634-9.557 26.236 26.236 0 0112.239-4.253 26.32 26.32 0 0112.798 2.11 25.957 25.957 0 0110.172 7.95 25.489 25.489 0 015.015 11.808 26.489 26.489 0 01-2.446 15.276z" fill="#B4D1FA"/><path d="M53.303 41.24c-2.318 4.745-6.45 7.827-11.039 10.517-2.684 1.545-2.652 7.127-2.652 7.127l-.291 11.004c0 5.725-2.453 2.822-7.359 6.693l-4.415-.484c-4.905 0-7.849 0-7.849-6.209 0-3.815-.313-8.135-.313-10.784 0-4.818-1.747-6.905-2.62-7.347A25.841 25.841 0 017.6 42.695 25.416 25.416 0 014.01 30.39a25.388 25.388 0 012.881-12.484 25.784 25.784 0 018.634-9.557 26.236 26.236 0 0112.239-4.253 26.32 26.32 0 0112.798 2.11 25.957 25.957 0 0110.172 7.95 25.489 25.489 0 015.015 11.808 26.489 26.489 0 01-2.446 15.276z" fill="url(#paint0_radial)" fill-opacity=".8"/></g><g filter="url(#filter1_di)"><path d="M38.532 56.258H20.488c-.978 0-1.77.65-1.77 1.451 0 .802.792 1.452 1.77 1.452h18.044c.978 0 1.77-.65 1.77-1.452 0-.801-.792-1.451-1.77-1.451z" fill="#F985A0"/></g><g filter="url(#filter2_di)"><path d="M38.532 61.096H20.488c-.978 0-1.77.65-1.77 1.452 0 .802.792 1.452 1.77 1.452h18.044c.978 0 1.77-.65 1.77-1.452 0-.802-.792-1.452-1.77-1.452z" fill="#F985A0"/></g><g filter="url(#filter3_di)"><path d="M38.532 65.935H20.488c-.978 0-1.77.65-1.77 1.452 0 .802.792 1.452 1.77 1.452h18.044c.978 0 1.77-.65 1.77-1.452 0-.802-.792-1.452-1.77-1.452z" fill="#F985A0"/></g><path d="M25.233 36.904a10.214 10.214 0 004.498 1.1c2.58 0 4.1-1.192 4.1-2.872s-1.058-2.505-3.67-3.36c-3.307-.978-5.16-2.414-5.16-4.797 0-2.383 2.514-4.582 6.284-4.582a9.986 9.986 0 014.333.825l-.695 1.771a9.189 9.189 0 00-3.704-.794c-2.679 0-3.67 1.375-3.67 2.536 0 1.16 1.19 2.352 3.869 3.269 3.307 1.1 4.96 2.474 4.96 4.949 0 2.474-2.215 4.857-6.813 4.857a11.482 11.482 0 01-4.96-1.07l.628-1.832zm4.277-14.517v-2.903h1.91l.051 2.795" fill="#C43B55"/><path d="M31.471 39.806v2.904h-1.91l-.052-2.838" fill="#C43B55"/><path d="M39.32 70.774H19.698c0 2.097 1.471 8.226 9.81 8.226 7.499 0 9.812-5.484 9.812-8.226z" fill="#71A0DD"/><defs><filter id="filter0_di" x="0" y="0" width="68" height="88.581" filterUnits="userSpaceOnUse" color-interpolation-filters="sRGB"><feFlood flood-opacity="0" result="BackgroundImageFix"/><feColorMatrix in="SourceAlpha" values="0 0 0 0 0 0 0 0 0 0 0 0 0 0 0 0 0 0 127 0"/><feOffset dx="4" dy="4"/><feGaussianBlur stdDeviation="4"/><feColorMatrix values="0 0 0 0 0 0 0 0 0 0 0 0 0 0 0 0 0 0 0.2 0"/><feBlend in2="BackgroundImageFix" result="effect1_dropShadow"/><feBlend in="SourceGraphic" in2="effect1_dropShadow" result="shape"/><feColorMatrix in="SourceAlpha" values="0 0 0 0 0 0 0 0 0 0 0 0 0 0 0 0 0 0 127 0" result="hardAlpha"/><feOffset dx="-4" dy="-4"/><feGaussianBlur stdDeviation="4"/><feComposite in2="hardAlpha" operator="arithmetic" k2="-1" k3="1"/><feColorMatrix values="0 0 0 0 0 0 0 0 0 0 0 0 0 0 0 0 0 0 0.2 0"/><feBlend in2="shape" result="effect2_innerShadow"/></filter><filter id="filter1_di" x="14.717" y="52.258" width="37.585" height="18.903" filterUnits="userSpaceOnUse" color-interpolation-filters="sRGB"><feFlood flood-opacity="0" result="BackgroundImageFix"/><feColorMatrix in="SourceAlpha" values="0 0 0 0 0 0 0 0 0 0 0 0 0 0 0 0 0 0 127 0"/><feOffset dx="4" dy="4"/><feGaussianBlur stdDeviation="4"/><feColorMatrix values="0 0 0 0 0 0 0 0 0 0 0 0 0 0 0 0 0 0 0.2 0"/><feBlend in2="BackgroundImageFix" result="effect1_dropShadow"/><feBlend in="SourceGraphic" in2="effect1_dropShadow" result="shape"/><feColorMatrix in="SourceAlpha" values="0 0 0 0 0 0 0 0 0 0 0 0 0 0 0 0 0 0 127 0" result="hardAlpha"/><feOffset dx="-4" dy="-4"/><feGaussianBlur stdDeviation="4"/><feComposite in2="hardAlpha" operator="arithmetic" k2="-1" k3="1"/><feColorMatrix values="0 0 0 0 0 0 0 0 0 0 0 0 0 0 0 0 0 0 0.15 0"/><feBlend in2="shape" result="effect2_innerShadow"/></filter><filter id="filter2_di" x="14.717" y="57.096" width="37.585" height="18.903" filterUnits="userSpaceOnUse" color-interpolation-filters="sRGB"><feFlood flood-opacity="0" result="BackgroundImageFix"/><feColorMatrix in="SourceAlpha" values="0 0 0 0 0 0 0 0 0 0 0 0 0 0 0 0 0 0 127 0"/><feOffset dx="4" dy="4"/><feGaussianBlur stdDeviation="4"/><feColorMatrix values="0 0 0 0 0 0 0 0 0 0 0 0 0 0 0 0 0 0 0.2 0"/><feBlend in2="BackgroundImageFix" result="effect1_dropShadow"/><feBlend in="SourceGraphic" in2="effect1_dropShadow" result="shape"/><feColorMatrix in="SourceAlpha" values="0 0 0 0 0 0 0 0 0 0 0 0 0 0 0 0 0 0 127 0" result="hardAlpha"/><feOffset dx="-4" dy="-4"/><feGaussianBlur stdDeviation="4"/><feComposite in2="hardAlpha" operator="arithmetic" k2="-1" k3="1"/><feColorMatrix values="0 0 0 0 0 0 0 0 0 0 0 0 0 0 0 0 0 0 0.15 0"/><feBlend in2="shape" result="effect2_innerShadow"/></filter><filter id="filter3_di" x="14.717" y="61.935" width="37.585" height="18.903" filterUnits="userSpaceOnUse" color-interpolation-filters="sRGB"><feFlood flood-opacity="0" result="BackgroundImageFix"/><feColorMatrix in="SourceAlpha" values="0 0 0 0 0 0 0 0 0 0 0 0 0 0 0 0 0 0 127 0"/><feOffset dx="4" dy="4"/><feGaussianBlur stdDeviation="4"/><feColorMatrix values="0 0 0 0 0 0 0 0 0 0 0 0 0 0 0 0 0 0 0.2 0"/><feBlend in2="BackgroundImageFix" result="effect1_dropShadow"/><feBlend in="SourceGraphic" in2="effect1_dropShadow" result="shape"/><feColorMatrix in="SourceAlpha" values="0 0 0 0 0 0 0 0 0 0 0 0 0 0 0 0 0 0 127 0" result="hardAlpha"/><feOffset dx="-4" dy="-4"/><feGaussianBlur stdDeviation="4"/><feComposite in2="hardAlpha" operator="arithmetic" k2="-1" k3="1"/><feColorMatrix values="0 0 0 0 0 0 0 0 0 0 0 0 0 0 0 0 0 0 0.15 0"/><feBlend in2="shape" result="effect2_innerShadow"/></filter><radialGradient id="paint0_radial" cx="0" cy="0" r="1" gradientUnits="userSpaceOnUse" gradientTransform="rotate(48.878 -4.667 28.27) scale(23.1236 36.6515)"><stop stop-color="#fff"/><stop offset=".724" stop-color="#fff" stop-opacity="0"/></radialGradient></defs></svg>
